X:192
T: LIEBEN LIEBEN DAS IST GUT
N: E0775
O: Europa, Mitteleuropa, Deutschland, Hessen, Wetterau, Bettenhausen
R: Abschieds - Lied, Liebe
M: 2/4
L: 1/16
K: G
 | G2D2D2G2 | G2E2E4 |
F2F2F2A2 | A2B2G4 |
D2D2c3B | A2d2B4 |
G2B2A2c2 | B2A2G4 |
D2D2c3B | A2d2B4 |
G2B2A2c2 | B2A2G4

